public/images/face.svg

<svg xmlns="http://www.w3.org/2000/svg"  viewBox="0 0 100 100" width="50px" height="50px"><path fill="#ee3e54" d="M13 27A2 2 0 1 0 13 31A2 2 0 1 0 13 27Z"/><path fill="#f1bc19" d="M77 12A1 1 0 1 0 77 14A1 1 0 1 0 77 12Z"/><path fill="#fce0a2" d="M50 13A37 37 0 1 0 50 87A37 37 0 1 0 50 13Z"/><path fill="#f1bc19" d="M83 11A4 4 0 1 0 83 19A4 4 0 1 0 83 11Z"/><path fill="#ee3e54" d="M87 22A2 2 0 1 0 87 26A2 2 0 1 0 87 22Z"/><path fill="#fbcd59" d="M81 74A2 2 0 1 0 81 78 2 2 0 1 0 81 74zM15 59A4 4 0 1 0 15 67 4 4 0 1 0 15 59z"/><path fill="#ee3e54" d="M25 85A2 2 0 1 0 25 89A2 2 0 1 0 25 85Z"/><path fill="#fff" d="M18.5 51A2.5 2.5 0 1 0 18.5 56A2.5 2.5 0 1 0 18.5 51Z"/><path fill="#f1bc19" d="M21 66A1 1 0 1 0 21 68A1 1 0 1 0 21 66Z"/><path fill="#fff" d="M80 33A1 1 0 1 0 80 35A1 1 0 1 0 80 33Z"/><g><path fill="#78a2d2" d="M50 25.625A24.25 24.25 0 1 0 50 74.125A24.25 24.25 0 1 0 50 25.625Z"/></g><g><path fill="#472b29" d="M68.164,59.445c-0.073,0-0.148-0.017-0.219-0.051c-0.248-0.121-0.351-0.42-0.23-0.668 c0.132-0.271,0.256-0.543,0.375-0.818c0.46-1.068,0.826-2.186,1.087-3.318c0.062-0.27,0.333-0.437,0.6-0.375 c0.269,0.063,0.437,0.331,0.375,0.6c-0.275,1.191-0.66,2.366-1.144,3.49c-0.125,0.289-0.256,0.575-0.395,0.859 C68.527,59.342,68.349,59.445,68.164,59.445z"/></g><g><path fill="#472b29" d="M70.264,52.336c-0.015,0-0.03-0.001-0.045-0.002c-0.275-0.024-0.478-0.268-0.453-0.543 c0.039-0.429,0.063-0.857,0.074-1.286c0.067-2.666-0.39-5.273-1.358-7.752c-0.101-0.257,0.027-0.547,0.284-0.647 c0.259-0.104,0.547,0.025,0.648,0.284c1.017,2.602,1.497,5.341,1.426,8.14c-0.011,0.451-0.037,0.901-0.078,1.352 C70.738,52.141,70.52,52.336,70.264,52.336z"/></g><g><path fill="#472b29" d="M35.107,36.532c-0.123,0-0.245-0.045-0.341-0.135c-0.202-0.188-0.212-0.505-0.024-0.706 c3.399-3.642,7.999-5.94,12.95-6.475c0.277-0.023,0.521,0.17,0.551,0.443c0.03,0.274-0.169,0.521-0.443,0.551 c-4.713,0.509-9.091,2.697-12.327,6.162C35.375,36.479,35.241,36.532,35.107,36.532z"/></g><g><path fill="#472b29" d="M36.138,65.284c-0.123,0-0.245-0.045-0.341-0.135c-7.104-6.632-8.721-17.138-3.934-25.548 c0.137-0.242,0.442-0.325,0.682-0.188c0.24,0.137,0.324,0.442,0.187,0.682c-4.557,8.006-3.016,18.008,3.748,24.323 c0.202,0.188,0.212,0.505,0.024,0.706C36.405,65.23,36.271,65.284,36.138,65.284z"/></g><g><path fill="#472b29" d="M58.889,68.769c-0.186,0-0.365-0.104-0.451-0.283c-0.12-0.248-0.016-0.547,0.233-0.667 c2.202-1.062,4.172-2.515,5.856-4.316c0.679-0.729,1.307-1.511,1.866-2.325c0.156-0.227,0.469-0.285,0.695-0.129 c0.228,0.156,0.286,0.467,0.129,0.695c-0.587,0.855-1.246,1.677-1.959,2.44c-1.769,1.894-3.838,3.42-6.152,4.535 C59.036,68.753,58.962,68.769,58.889,68.769z"/></g><g><path fill="#fff" d="M46.458,73.5v-17h-6.021v-5.978h6.021l0-6.216c-0.137-5.577,4.159-11.002,14.104-7.994l-0.021,5.271 l-3.508-0.022c-2.699,0-3.628,0.863-3.628,2.745v6.216h7.157L59.304,56.5h-5.899v17"/><path fill="#472b29" d="M53.905,73.5h-1V56h5.993l1.048-4.978h-7.041v-6.716c0-2.244,1.273-3.245,4.128-3.245l3.01,0.019 l0.018-4.394c-4.274-1.22-7.779-0.913-10.154,0.896c-1.942,1.479-3.018,3.926-2.949,6.712v6.729h-6.021V56h6.021v17.5h-1V57h-6.021 v-6.978h6.021v-5.716c-0.076-3.099,1.142-5.845,3.343-7.521c1.888-1.438,5.398-2.768,11.406-0.952l0.357,0.107l-0.024,6.145 l-4.009-0.024c-2.614,0-3.125,0.823-3.125,2.245v5.716h7.273L59.71,57h-5.805V73.5z"/></g><g><path fill="#472b29" d="M50,74.825c-13.757,0-24.95-11.192-24.95-24.95S36.243,24.925,50,24.925s24.95,11.192,24.95,24.95 S63.757,74.825,50,74.825z M50,26.325c-12.985,0-23.55,10.564-23.55,23.55S37.015,73.425,50,73.425s23.55-10.564,23.55-23.55 S62.985,26.325,50,26.325z"/></g></svg>

<svg xmlns="http://www.w3.org/2000/svg" viewBox="0 0 100 100"><path fill="#ee3e54" d="M13 27a2 2 0 1 0 0 4 2 2 0 1 0 0-4Z"/><path fill="#f1bc19" d="M77 12a1 1 0 1 0 0 2 1 1 0 1 0 0-2Z"/><path fill="#fce0a2" d="M50 13a37 37 0 1 0 0 74 37 37 0 1 0 0-74Z"/><path fill="#f1bc19" d="M83 11a4 4 0 1 0 0 8 4 4 0 1 0 0-8Z"/><path fill="#ee3e54" d="M87 22a2 2 0 1 0 0 4 2 2 0 1 0 0-4Z"/><path fill="#fbcd59" d="M81 74a2 2 0 1 0 0 4 2 2 0 1 0 0-4zM15 59a4 4 0 1 0 0 8 4 4 0 1 0 0-8z"/><path fill="#ee3e54" d="M25 85a2 2 0 1 0 0 4 2 2 0 1 0 0-4Z"/><path fill="#fff" d="M18.5 51a2.5 2.5 0 1 0 0 5 2.5 2.5 0 1 0 0-5Z"/><path fill="#f1bc19" d="M21 66a1 1 0 1 0 0 2 1 1 0 1 0 0-2Z"/><path fill="#fff" d="M80 33a1 1 0 1 0 0 2 1 1 0 1 0 0-2Z"/><path fill="#78a2d2" d="M50 25.6a24.3 24.3 0 1 0 0 48.5 24.3 24.3 0 1 0 0-48.5Z"/><path fill="#472b29" d="M68.2 59.4h-.3a.5.5 0 0 1-.2-.7 20 20 0 0 0 1.5-4.1.5.5 0 0 1 1 .2 20.5 20.5 0 0 1-1.6 4.4l-.4.2zm2.1-7.1a.5.5 0 0 1-.5-.5 19.8 19.8 0 0 0-1.3-9c-.1-.3 0-.6.3-.7.2-.1.5 0 .6.3a20.8 20.8 0 0 1 1.4 9.5c0 .2-.3.4-.5.4zM35.1 36.5l-.3-.1a.5.5 0 0 1 0-.7c3.3-3.7 8-6 12.9-6.5.3 0 .5.2.5.5 0 .2-.1.5-.4.5-4.7.5-9 2.7-12.3 6.2l-.4.1zm1 28.8s-.2 0-.3-.2a20.8 20.8 0 0 1-4-25.5c.2-.2.5-.3.7-.2.3.1.4.5.2.7-4.5 8-3 18 3.8 24.3a.5.5 0 0 1-.4.9zm22.8 3.5a.5.5 0 0 1-.2-1 19.7 19.7 0 0 0 7.7-6.6.5.5 0 0 1 .8.5 21 21 0 0 1-8.3 7z"/><path fill="#fff" d="M46.5 73.5v-17h-6v-6h6v-6.2c-.2-5.6 4.1-11 14-8v5.3H57c-2.7 0-3.6.8-3.6 2.7v6.2h7.2l-1.3 6h-5.9v17"/><path fill="#472b29" d="M54 73.5h-1V56h5.9l1-5h-7v-6.7c0-2.2 1.3-3.2 4.1-3.2h3v-4.4c-4.2-1.2-7.7-1-10 .9a8 8 0 0 0-3 6.7V51h-6v5h6v17.5h-1V57h-6v-7h6v-5.7a9 9 0 0 1 3.3-7.5c1.9-1.5 5.4-2.8 11.4-1l.4.1v6.2h-4c-2.7 0-3.2.8-3.2 2.2V50h7.3l-1.5 7H54v16.5z"/><path fill="#472b29" d="M50 74.8a25 25 0 1 1 0-50 25 25 0 0 1 0 50zm0-48.5a23.6 23.6 0 1 0 0 47.2 23.6 23.6 0 0 0 0-47.2z"/></svg>
